icons/svg/functional-icons/halt_small.svg

<?xml version="1.0" encoding="UTF-8" standalone="no"?>
<svg
   xmlns:dc="http://purl.org/dc/elements/1.1/"
   xmlns:cc="http://creativecommons.org/ns#"
   xmlns:rdf="http://www.w3.org/1999/02/22-rdf-syntax-ns#"
   xmlns:svg="http://www.w3.org/2000/svg"
   xmlns="http://www.w3.org/2000/svg"
   xmlns:sodipodi="http://sodipodi.sourceforge.net/DTD/sodipodi-0.dtd"
   xmlns:inkscape="http://www.inkscape.org/namespaces/inkscape"
   width="580"
   height="580"
   id="svg2"
   version="1.1"
   inkscape:version="0.91 r"
   sodipodi:docname="halt_small.svg">
  <defs
     id="defs13" />
  <sodipodi:namedview
     pagecolor="#ffffff"
     bordercolor="#666666"
     borderopacity="1"
     objecttolerance="10"
     gridtolerance="10000"
     guidetolerance="10"
     inkscape:pageopacity="0"
     inkscape:pageshadow="2"
     inkscape:window-width="1920"
     inkscape:window-height="1004"
     id="namedview11"
     showgrid="true"
     inkscape:snap-page="true"
     inkscape:snap-bbox="true"
     inkscape:zoom="0.40689657"
     inkscape:cx="667.82199"
     inkscape:cy="205.87316"
     inkscape:window-x="1680"
     inkscape:window-y="0"
     inkscape:window-maximized="1"
     inkscape:current-layer="svg2"
     inkscape:bbox-nodes="true"
     inkscape:bbox-paths="true"
     inkscape:snap-bbox-edge-midpoints="true"
     inkscape:snap-bbox-midpoints="true"
     inkscape:snap-object-midpoints="true"
     inkscape:snap-center="true"
     inkscape:object-paths="false"
     inkscape:object-nodes="true"
     inkscape:snap-smooth-nodes="false"
     inkscape:snap-midpoints="false"
     inkscape:snap-intersection-paths="false"
     inkscape:snap-nodes="true"
     inkscape:snap-global="false">
    <inkscape:grid
       type="xygrid"
       id="grid4152"
       spacingx="36.25"
       spacingy="36.25" />
  </sodipodi:namedview>
  <metadata
     id="metadata2975">image/svg+xmlen<rdf:RDF>
  <cc:Work
     rdf:about="">
    <dc:format>image/svg+xml</dc:format>
    <dc:type
       rdf:resource="http://purl.org/dc/dcmitype/StillImage" />
    <dc:title />
  </cc:Work>
</rdf:RDF>
</metadata>
  <path
     style="opacity:0.75400002;fill:#fefefe;stroke:none;stroke-width:5;color:#000000;clip-rule:nonzero;display:inline;overflow:visible;visibility:visible;isolation:auto;mix-blend-mode:normal;color-interpolation:sRGB;color-interpolation-filters:linearRGB;solid-color:#000000;solid-opacity:1;fill-opacity:1;fill-rule:nonzero;stroke-linecap:butt;stroke-linejoin:miter;stroke-miterlimit:4;stroke-dasharray:none;stroke-dashoffset:0;stroke-opacity:1;filter-blend-mode:normal;filter-gaussianBlur-deviation:0;color-rendering:auto;image-rendering:auto;shape-rendering:auto;text-rendering:auto;enable-background:accumulate"
     d="m 230.99414,121.68945 c -33.40027,0 -60.36784,15.23366 -73.10547,33.29102 -12.73762,18.05735 -13.10547,38.25391 -13.10547,38.25391 -0.004,0.21026 -0.006,0.42055 -0.006,0.63085 0.043,81.54976 0,76.73568 0,191.85157 0,8.85144 3.31768,18.3316 8.125,26.00976 l -1.65625,2.39649 c -16.71297,24.19258 0.59989,57.20317 30.00405,57.20898 l 52.94531,0 c 12.56801,-7e-4 24.25043,-6.47142 30.91797,-17.125 l 11.87891,-18.98437 25.98633,0 11.82421,18.94726 c 6.66304,10.67485 18.35775,17.16149 30.94141,17.16211 l 53.00586,0 c 29.40409,-0.006 46.71685,-33.01645 30.00391,-57.20898 l -1.48829,-2.1543 c 4.75781,-7.71812 7.95704,-17.15331 7.95704,-25.81836 0,-63.25042 0.13634,-66.1934 0,-192.34375 -5.3e-4,-0.18882 -0.003,-0.37763 -0.006,-0.56641 0,0 -0.30557,-19.94337 -12.80274,-37.99609 -12.49717,-18.05271 -39.36966,-33.55469 -72.47656,-33.55469 l -118.94336,0 z"
     id="path4216"
     inkscape:connector-curvature="0"
     sodipodi:nodetypes="csccsccccccccccscsccsscc" />
  <g
     id="g1327-1"
     transform="translate(432.01915,-130.27361)" />
  <path
     style="fill:#0092da;stroke:none;stroke-width:5"
     d="m 230.99414,158.16211 c -49.14601,0 -49.74414,35.68359 -49.74414,35.68359 0.043,81.56182 0,76.76396 0,191.87076 0,15.41569 24.95508,13.03354 24.95508,13.03354 l -24.95508,36.10938 52.94531,0 22.59571,-36.10938 66.41796,0 22.53516,36.10938 53.00586,0 L 373.79492,398.75 c 0,0 24.95508,3.15765 24.95508,-12.59908 0,-63.30278 0.13631,-66.18175 0,-192.30522 0,0 -0.59213,-35.68359 -48.8125,-35.68359 z M 217.5,197.5 l 145,0 -0.0312,92.2168 -145,0 z m 18.09961,128.44336 c 10.01016,0 18.125,8.11484 18.125,18.125 0,10.01016 -8.11484,18.125 -18.125,18.125 -10.01016,0 -18.125,-8.11484 -18.125,-18.125 0,-10.01016 8.11484,-18.125 18.125,-18.125 z m 108.85156,0.125 c 10.01016,0 18.125,8.11484 18.125,18.125 0,10.01016 -8.11484,18.125 -18.125,18.125 -10.01016,0 -18.125,-8.11484 -18.125,-18.125 0,-10.01016 8.11484,-18.125 18.125,-18.125 z"
     id="svg_1-7"
     inkscape:connector-curvature="0"
     sodipodi:nodetypes="sccccccccccccsscccccssssssssss" />
</svg>

<svg width="580" height="580" viewBox="0 0 580 580" fill="none" xmlns="http://www.w3.org/2000/svg">
<path opacity="0.754" d="M230.994 121.689C197.594 121.689 170.626 136.923 157.888 154.98C145.151 173.038 144.783 193.234 144.783 193.234C144.779 193.445 144.777 193.655 144.777 193.865C144.82 275.415 144.777 270.601 144.777 385.717C144.777 394.568 148.095 404.048 152.902 411.727L151.246 414.123C134.533 438.316 151.846 471.326 181.25 471.332H234.195C246.763 471.331 258.445 464.861 265.113 454.207L276.992 435.223H302.978L314.802 454.17C321.465 464.845 333.16 471.331 345.744 471.332H398.75C428.154 471.326 445.467 438.316 428.754 414.123L427.265 411.969C432.023 404.251 435.222 394.815 435.222 386.15C435.222 322.9 435.359 319.957 435.222 193.807C435.222 193.618 435.219 193.429 435.216 193.24C435.216 193.24 434.911 173.297 422.414 155.244C409.916 137.191 383.044 121.689 349.937 121.689H230.994H230.994Z" fill="#FEFEFE"/>
<path d="M230.994 158.162C181.848 158.162 181.25 193.846 181.25 193.846C181.293 275.408 181.25 270.61 181.25 385.716C181.25 401.132 206.205 398.75 206.205 398.75L181.25 434.859H234.195L256.791 398.75H323.209L345.744 434.859H398.75L373.795 398.75C373.795 398.75 398.75 401.908 398.75 386.151C398.75 322.848 398.886 319.969 398.75 193.846C398.75 193.846 398.158 158.162 349.938 158.162H230.994ZM217.5 197.5H362.5L362.469 289.717H217.469L217.5 197.5ZM235.6 325.943C245.61 325.943 253.725 334.058 253.725 344.068C253.725 354.079 245.61 362.193 235.6 362.193C225.589 362.193 217.475 354.079 217.475 344.068C217.475 334.058 225.589 325.943 235.6 325.943ZM344.451 326.068C354.461 326.068 362.576 334.183 362.576 344.193C362.576 354.204 354.461 362.318 344.451 362.318C334.441 362.318 326.326 354.204 326.326 344.193C326.326 334.183 334.441 326.068 344.451 326.068Z" fill="#0092DA"/>
</svg>
